X: 162
Q: "Very Slow"
M: 6/8
L: 1/8
K: Bb
V: 1
d |\
fdB {a}bag | fdB gec | fdB eAc | dGA B2 :|
|: F |\
(bBb) afd | geg fdB | ABc Bdf | {f}ed~c B2 :|
V: 2 clef=bass middle=d
z |\
d/b/B/b/d/b/ g/b/f/b/e/b/ | d/c/B/c/d/B/ e/d/c/d/e/c/ |\
d/f/b/c'/d'/b/  e/c/f/g/a/f/ | b/d/e/c/f/F/ B/b/B :|
|: z |\
^f/d/g/d/a/d/ b/a/g/a/=b/g/ | zc/d/e/c/ f/=e/f/g/a/f/ |\
bg/a/=b/g/ c'a/_b/^c'/a/ | d'/a/b/g/a/A/ d/e/f/e/d/c/ |


